X:1
T:Motherland, LM
T:Motherland, LM
T:Thomas Hutchinson, before 1913
T:Public Domain Courtesy of the Cyber Hymnal™
C:Thomas Hutchinson, before 1913
Z:Public Domain
Z:Courtesy of the Cyber Hymnal™
%%score ( 1 2 ) ( 3 4 )
L:1/8
Q:1/4=112
M:3/4
K:Ab
V:1 treble 
V:2 treble 
V:3 bass 
V:4 bass 
V:1
 [CE]2 [DF]2 [DA]2 | [DG]4 [DF]2 | E4 c2 | [GB]6 | [Ad]2 [Ad]2 [Be]2 | [Ac]4 [EA]2 | (c2 B2) A2 | %7
 [GB]6 | [EA]2 [EA]2 [EA]2 | [DA]4 [Dd]2 | [Ec]4 [EB]2 | [Ee]4 E2 | F4 [DG]2 | [CA]2 [Fd]2 [Ec]2 | %14
 c4 [DB]2 | [CA]6 |] %16
V:2
 x6 | x6 | (D2 C2) (EF) | x6 | x6 | x6 | A4 A2 | x6 | x6 | x6 | x6 | x4 (CE) | (E2 D2) x2 | x6 | %14
 (E2 D2) x2 | x6 |] %16
V:3
 [A,,A,]2 [D,A,]2 [B,,B,]2 | [E,B,]4 [F,B,]2 | ([G,B,]2 A,2) (C=D) | [E,C]6 | %4
 [F,D]2 [F,D]2 [G,B,]2 | [A,E]4 [A,C]2 | [F,=D]4 [B,D]2 | [E,E]6 | [A,C]2 [_G,C]2 [G,C]2 | %9
 (D2 A,2) [_F,A,]2 | [E,A,]4 [D,G,]2 | [C,A,]4 [A,,A,]2 | ([D,A,]2 [B,,B,]2) [E,B,]2 | %13
 [F,A,]3 [G,B,] [A,C]2 | (A,2 F,2) [E,G,]2 | [A,,A,]6 |] %16
V:4
 x6 | x6 | x2 A,2 A,2 | x6 | x6 | x6 | x6 | x6 | x6 | _F,4 x2 | x6 | x6 | x6 | x6 | E,4 x2 | x6 |] %16

